packages/tokens/icons/flexible/size32Px.svg

<svg viewBox="0 0 32 32" fill="none" xmlns="http://www.w3.org/2000/svg" width="1em" height="1em"><path fill-rule="evenodd" clip-rule="evenodd" d="M15.6464 3.64645C15.8417 3.45118 16.1583 3.45118 16.3535 3.64645L20.5962 7.88909C20.7914 8.08435 20.7914 8.40093 20.5962 8.59619C20.4009 8.79146 20.0843 8.79146 19.8891 8.59619L16.5 5.20711L16.5 14.5C16.5 14.7761 16.2761 15 16 15C15.7238 15 15.5 14.7761 15.5 14.5L15.5 5.20711L12.1109 8.59619C11.9156 8.79146 11.599 8.79146 11.4038 8.59619C11.2085 8.40093 11.2085 8.08435 11.4038 7.88909L15.6464 3.64645ZM3.64645 15.6464C3.45118 15.8417 3.45118 16.1583 3.64645 16.3535L7.88909 20.5962C8.08435 20.7914 8.40093 20.7914 8.59619 20.5962C8.79146 20.4009 8.79146 20.0843 8.59619 19.8891L5.20711 16.5H12C13.933 16.5 15.5 18.067 15.5 20V20.0001L15.5 27.5V27.5001C15.5 27.7762 15.7239 28.0001 16 28.0001C16.2761 28.0001 16.5 27.7762 16.5 27.5001V27.5L16.5 20.0001C16.5 18.0671 18.067 16.5001 20 16.5001L26.7929 16.5001L23.4038 19.8892C23.2085 20.0844 23.2085 20.401 23.4038 20.5963C23.5991 20.7915 23.9157 20.7915 24.1109 20.5963L28.3536 16.3536C28.5488 16.1584 28.5488 15.8418 28.3536 15.6465L24.1109 11.4039C23.9157 11.2086 23.5991 11.2086 23.4038 11.4039C23.2085 11.5992 23.2085 11.9157 23.4038 12.111L26.7929 15.5001L20 15.5001C18.2586 15.5001 16.7482 16.4893 16 17.9364C15.2519 16.4892 13.7415 15.5 12 15.5L5.20711 15.5L8.59619 12.1109C8.79146 11.9156 8.79146 11.599 8.59619 11.4038C8.40093 11.2085 8.08435 11.2085 7.88909 11.4038L3.64645 15.6464Z" fill="currentColor"/></svg>

<svg xmlns="http://www.w3.org/2000/svg" fill="none" viewBox="0 0 32 32" width="1em" height="1em"><path fill="currentColor" fill-rule="evenodd" d="M15.646 3.646a.5.5 0 0 1 .707 0l4.243 4.243a.5.5 0 0 1-.707.707L16.5 5.207V14.5a.5.5 0 0 1-1 0V5.207l-3.39 3.39a.5.5 0 1 1-.706-.708l4.242-4.243Zm-12 12a.5.5 0 0 0 0 .707l4.243 4.243a.5.5 0 0 0 .707-.707L5.207 16.5H12a3.5 3.5 0 0 1 3.5 3.5v7.5a.5.5 0 0 0 1 0V20a3.5 3.5 0 0 1 3.5-3.5h6.793l-3.39 3.39a.5.5 0 1 0 .708.706l4.243-4.242a.5.5 0 0 0 0-.707l-4.243-4.243a.5.5 0 1 0-.707.707l3.389 3.39H20a4.5 4.5 0 0 0-4 2.435 4.5 4.5 0 0 0-4-2.436H5.207l3.39-3.39a.5.5 0 1 0-.708-.706l-4.243 4.242Z" clip-rule="evenodd"/></svg>
